X: 18541
T: I Have A House Of My Own With A Chimney Built On Top Of It
R: slip jig
M: 9/8
K: Bminor
|:BAF FEF FEF|BAF FEF ABc|BAF FEF FEA|~E3 EFA BAF:|
cec e2c ~e3|fec fec ecB|cec e2c e2c|~B3 c2B AFE|
cec e2c efa|fec fec ecB|fec ecB c2c|~B3 c2B AFE||

